X: 10931
T: PADDY O' RAFFERTY
O: Irish
Q: "Allegretto"
%R: jig
B: "Edinburgh Repository of Music" v.1 p.93 #1
F: http://digital.nls.uk/special-collections-of-printed-music/pageturner.cfm?id=87776133
Z: 2015 John Chambers <jc:trillian.mit.edu>
M: 6/8
L: 1/8
K: A
B |\
(A/B/c).E E>FE | Edc TBAB | (A/B/c).E E>FE | (Ac.B) AF.B |\
(A/B/c).E E>FE | (Edc) d>ef | ecA TB>cd | cd.B (AF).B :|
|:\
(Ac).e (Ac).e | Ace fdB | Ace f>ga | A<cB AFB |\
(Ac).e (Ac).e | Ace efg | aga ecB | AcB AFB :|

%%sep 2 1 500
%%sep 1 1 500

